public/library/swapr-icon-dark.svg

<svg width="72" height="72" viewBox="0 0 72 72" fill="none" xmlns="http://www.w3.org/2000/svg">
<circle cx="36.5" cy="36" r="32" fill="#A216E3"/>
<mask id="mask0_118_2059" style="mask-type:luminance" maskUnits="userSpaceOnUse" x="15" y="15" width="44" height="44">
<path d="M58.069 15.6772H15.4023V58.3439H58.069V15.6772Z" fill="white"/>
</mask>
<g mask="url(#mask0_118_2059)">
<path fill-rule="evenodd" clip-rule="evenodd" d="M15.4023 44.4282V37.0105C15.4023 25.2285 24.9535 15.6772 36.7355 15.6772C42.5469 15.6772 47.8157 18.001 51.6632 21.77L47.128 24.6039C44.3166 22.2463 40.6919 20.8266 36.7355 20.8266C27.7975 20.8266 20.5517 28.0724 20.5517 37.0105H25.7011L15.4023 44.4282ZM26.2651 49.3511C29.0875 51.7483 32.7428 53.1944 36.7358 53.1944C45.6739 53.1944 52.9197 45.9487 52.9197 37.0105H47.7703L58.0686 29.4704L58.069 37.0105C58.069 48.7925 48.5179 58.3438 36.7358 58.3438C30.8884 58.3438 25.5904 55.9911 21.7368 52.1806L26.2651 49.3511ZM44.9194 44.0909H39.0344L36.7358 40.9859L34.4373 44.0909H28.5522L33.8836 37.1329L28.5517 29.9301H34.069L36.7358 33.4106L39.4027 29.9301H44.92L39.588 37.1329L44.9194 44.0909Z" fill="white"/>
</g>
</svg>

<svg xmlns="http://www.w3.org/2000/svg" width="72" height="72" fill="none" viewBox="0 0 72 72"><circle cx="36.5" cy="36" r="32" fill="#a216e3"/><mask id="a" width="44" height="44" x="15" y="15" maskUnits="userSpaceOnUse" style="mask-type:luminance"><path fill="#fff" d="M58.069 15.677H15.402v42.667H58.07z"/></mask><g mask="url(#a)"><path fill="#fff" fill-rule="evenodd" d="M15.402 44.428v-7.417c0-11.783 9.551-21.334 21.334-21.334 5.81 0 11.08 2.324 14.927 6.093l-4.535 2.834a16.12 16.12 0 0 0-10.392-3.777c-8.938 0-16.184 7.245-16.184 16.183h5.15zm10.863 4.923a16.12 16.12 0 0 0 10.47 3.843c8.939 0 16.185-7.245 16.185-16.184h-5.15l10.299-7.54v7.54c0 11.782-9.551 21.334-21.333 21.334a21.27 21.27 0 0 1-15-6.163zm18.654-5.26h-5.885l-2.298-3.105-2.299 3.105h-5.885l5.332-6.958-5.332-7.203h5.517l2.667 3.48 2.667-3.48h5.517l-5.332 7.203z" clip-rule="evenodd"/></g></svg>
